X:18698
T:Whiskey Island
R:pipe reel
C:Paul S. Cranford
O:20th Century Cape Breton
D:The Lighthouse, Cranford Publications
B:The Lighthouse Collection, ISBN 0-9691181-5-5
N:Contacts ...
N:..... Cranford Publications <http://www.cranfordpub.com>
Z:This abc transcription is for personal use only,
Z:provided this notice remains attached.
Z:Used by permission of the composer and publisher.
Z:Paul Stewart Cranford <psc@cranfordpub.com>
Q:300
L:1/8
M:C|
K:Amix
A/A/A ae fecA|Bedc BGGB|A/A/A ae fecA|BedB A/A/A e^g|!
ae e/e/e cA A/A/A|Bedc BGGB|ABcd eAcA|BedB A2 AB|!
c2 ec dB B/B/B|fd d/d/d cAAB|c2 ec dB B/B/B|BAGB A2 AB|!
c2 ec dB B/B/B|fd d/d/d cAe^g|aefd eAcA|BedB A2 AB|]!


